inst/assets/svg/wi-night-rain.svg

<?xml version="1.0" encoding="UTF-8"?>
<svg xmlns="http://www.w3.org/2000/svg" xmlns:xlink="http://www.w3.org/1999/xlink" width="30pt" height="30pt" viewBox="0 0 30 30" version="1.1">
<g id="surface751">
<path style=" stroke:none;fill-rule:nonzero;fill:rgb(0%,0%,0%);fill-opacity:1;" d="M 4.261719 16.929688 C 4.261719 17.589844 4.378906 18.210938 4.640625 18.808594 C 4.898438 19.410156 5.230469 19.921875 5.660156 20.359375 C 6.089844 20.789063 6.601563 21.148438 7.191406 21.410156 C 7.78125 21.671875 8.398438 21.828125 9.058594 21.859375 C 9.171875 21.859375 9.230469 21.800781 9.230469 21.691406 L 9.230469 20.351563 C 9.230469 20.238281 9.171875 20.179688 9.058594 20.179688 C 8.191406 20.121094 7.460938 19.769531 6.871094 19.148438 C 6.28125 18.53125 5.980469 17.78125 5.980469 16.929688 C 5.980469 16.089844 6.261719 15.359375 6.828125 14.738281 C 7.398438 14.121094 8.089844 13.769531 8.929688 13.699219 L 9.460938 13.640625 C 9.589844 13.640625 9.660156 13.578125 9.660156 13.449219 L 9.71875 12.941406 C 9.828125 11.851563 10.28125 10.949219 11.089844 10.230469 C 11.898438 9.511719 12.851563 9.148438 13.949219 9.148438 C 15.039063 9.148438 16 9.511719 16.800781 10.21875 C 17.609375 10.941406 18.070313 11.828125 18.179688 12.910156 L 18.25 13.488281 C 18.25 13.609375 18.308594 13.671875 18.441406 13.671875 L 20.039063 13.671875 C 20.941406 13.671875 21.710938 13.988281 22.359375 14.628906 C 23.011719 15.269531 23.328125 16.03125 23.328125 16.921875 C 23.328125 17.78125 23.03125 18.519531 22.441406 19.140625 C 21.851563 19.761719 21.109375 20.109375 20.25 20.171875 C 20.121094 20.171875 20.050781 20.230469 20.050781 20.339844 L 20.050781 21.679688 C 20.050781 21.789063 20.121094 21.851563 20.25 21.851563 C 21.589844 21.789063 22.71875 21.28125 23.640625 20.339844 C 24.558594 19.390625 25.019531 18.25 25.019531 16.921875 C 25.019531 16.199219 24.878906 15.539063 24.601563 14.929688 C 25.378906 13.988281 25.769531 12.871094 25.769531 11.570313 C 25.769531 10.628906 25.539063 9.761719 25.070313 8.949219 C 24.601563 8.140625 23.960938 7.5 23.160156 7.03125 C 22.359375 6.558594 21.480469 6.320313 20.539063 6.320313 C 18.980469 6.320313 17.691406 6.898438 16.660156 8.050781 C 15.78125 7.621094 14.878906 7.398438 13.960938 7.398438 C 12.550781 7.398438 11.300781 7.839844 10.210938 8.71875 C 9.121094 9.601563 8.421875 10.71875 8.109375 12.101563 C 7.011719 12.359375 6.101563 12.929688 5.378906 13.828125 C 4.621094 14.761719 4.261719 15.78125 4.261719 16.929688 Z M 9.75 23.609375 C 9.75 24.011719 9.96875 24.269531 10.398438 24.390625 C 10.609375 24.460938 10.820313 24.441406 11.03125 24.328125 C 11.238281 24.21875 11.378906 24.050781 11.441406 23.828125 L 12.941406 18.101563 C 13 17.878906 12.96875 17.671875 12.851563 17.46875 C 12.730469 17.269531 12.550781 17.140625 12.308594 17.070313 C 12.089844 17 11.878906 17.019531 11.679688 17.140625 C 11.480469 17.261719 11.351563 17.429688 11.289063 17.660156 L 9.789063 23.359375 C 9.761719 23.46875 9.75 23.550781 9.75 23.609375 Z M 12.339844 26.660156 C 12.339844 26.78125 12.371094 26.898438 12.421875 27.03125 C 12.519531 27.238281 12.691406 27.378906 12.929688 27.460938 C 12.949219 27.460938 12.988281 27.460938 13.03125 27.46875 C 13.070313 27.480469 13.109375 27.480469 13.140625 27.480469 C 13.171875 27.480469 13.199219 27.480469 13.230469 27.480469 C 13.660156 27.480469 13.910156 27.261719 13.988281 26.820313 L 16.289063 18.078125 C 16.359375 17.859375 16.339844 17.648438 16.230469 17.449219 C 16.121094 17.25 15.949219 17.121094 15.730469 17.050781 C 15.488281 16.980469 15.261719 17 15.050781 17.121094 C 14.839844 17.238281 14.71875 17.410156 14.671875 17.640625 L 12.359375 26.390625 C 12.351563 26.488281 12.339844 26.578125 12.339844 26.660156 Z M 16.5 23.601563 C 16.5 23.761719 16.550781 23.910156 16.660156 24.070313 C 16.769531 24.230469 16.921875 24.328125 17.109375 24.390625 C 17.171875 24.410156 17.25 24.421875 17.339844 24.421875 C 17.511719 24.421875 17.671875 24.371094 17.828125 24.28125 C 17.988281 24.191406 18.089844 24.039063 18.148438 23.828125 L 19.648438 18.101563 C 19.730469 17.890625 19.699219 17.691406 19.578125 17.480469 C 19.460938 17.269531 19.289063 17.140625 19.058594 17.070313 C 18.820313 17 18.601563 17.019531 18.398438 17.140625 C 18.199219 17.261719 18.078125 17.429688 18.039063 17.660156 L 16.539063 23.359375 C 16.511719 23.46875 16.5 23.550781 16.5 23.601563 Z M 18.03125 9.078125 C 18.699219 8.410156 19.519531 8.078125 20.511719 8.078125 C 21.488281 8.078125 22.320313 8.421875 23 9.101563 C 23.691406 9.78125 24.03125 10.609375 24.03125 11.578125 C 24.03125 12.210938 23.859375 12.820313 23.511719 13.429688 C 22.558594 12.480469 21.398438 12 20.019531 12 L 19.710938 12 C 19.429688 10.828125 18.871094 9.859375 18.03125 9.078125 Z M 18.03125 9.078125 "/>
</g>
</svg>

<?xml version="1.0" encoding="utf-8"?>
<!-- Generator: Adobe Illustrator 22.0.1, SVG Export Plug-In . SVG Version: 6.00 Build 0)  -->
<svg version="1.1" id="Layer_1" xmlns="http://www.w3.org/2000/svg" xmlns:xlink="http://www.w3.org/1999/xlink" x="0px" y="0px"
	 viewBox="0 0 30 30" style="enable-background:new 0 0 30 30;" xml:space="preserve">
<path d="M4.26,16.93c0,0.66,0.12,1.28,0.38,1.88s0.59,1.11,1.02,1.55c0.43,0.43,0.94,0.79,1.53,1.05s1.21,0.42,1.87,0.45
	c0.11,0,0.17-0.06,0.17-0.17v-1.34c0-0.11-0.06-0.17-0.17-0.17c-0.87-0.06-1.6-0.41-2.19-1.03c-0.59-0.62-0.89-1.37-0.89-2.22
	c0-0.84,0.28-1.57,0.85-2.19c0.57-0.62,1.26-0.97,2.1-1.04l0.53-0.06c0.13,0,0.2-0.06,0.2-0.19l0.06-0.51
	c0.11-1.09,0.56-1.99,1.37-2.71s1.76-1.08,2.86-1.08c1.09,0,2.05,0.36,2.85,1.07c0.81,0.72,1.27,1.61,1.38,2.69l0.07,0.58
	c0,0.12,0.06,0.18,0.19,0.18h1.6c0.9,0,1.67,0.32,2.32,0.96s0.97,1.4,0.97,2.29c0,0.86-0.3,1.6-0.89,2.22
	c-0.59,0.62-1.33,0.97-2.19,1.03c-0.13,0-0.2,0.06-0.2,0.17v1.34c0,0.11,0.07,0.17,0.2,0.17c1.34-0.06,2.47-0.57,3.39-1.51
	c0.92-0.95,1.38-2.09,1.38-3.42c0-0.72-0.14-1.38-0.42-1.99c0.78-0.94,1.17-2.06,1.17-3.36c0-0.94-0.23-1.81-0.7-2.62
	c-0.47-0.81-1.11-1.45-1.91-1.92s-1.68-0.71-2.62-0.71c-1.56,0-2.85,0.58-3.88,1.73c-0.88-0.43-1.78-0.65-2.7-0.65
	c-1.41,0-2.66,0.44-3.75,1.32s-1.79,2-2.1,3.38c-1.1,0.26-2.01,0.83-2.73,1.73C4.62,14.76,4.26,15.78,4.26,16.93z M9.75,23.61
	c0,0.4,0.22,0.66,0.65,0.78c0.21,0.07,0.42,0.05,0.63-0.06c0.21-0.11,0.35-0.28,0.41-0.5l1.5-5.73c0.06-0.22,0.03-0.43-0.09-0.63
	c-0.12-0.2-0.3-0.33-0.54-0.4c-0.22-0.07-0.43-0.05-0.63,0.07s-0.33,0.29-0.39,0.52l-1.5,5.7C9.76,23.47,9.75,23.55,9.75,23.61z
	 M12.34,26.66c0,0.12,0.03,0.24,0.08,0.37c0.1,0.21,0.27,0.35,0.51,0.43c0.02,0,0.06,0,0.1,0.01s0.08,0.01,0.11,0.01s0.06,0,0.09,0
	c0.43,0,0.68-0.22,0.76-0.66l2.3-8.74c0.07-0.22,0.05-0.43-0.06-0.63c-0.11-0.2-0.28-0.33-0.5-0.4c-0.24-0.07-0.47-0.05-0.68,0.07
	s-0.33,0.29-0.38,0.52l-2.31,8.75C12.35,26.49,12.34,26.58,12.34,26.66z M16.5,23.6c0,0.16,0.05,0.31,0.16,0.47
	c0.11,0.16,0.26,0.26,0.45,0.32c0.06,0.02,0.14,0.03,0.23,0.03c0.17,0,0.33-0.05,0.49-0.14c0.16-0.09,0.26-0.24,0.32-0.45l1.5-5.73
	c0.08-0.21,0.05-0.41-0.07-0.62c-0.12-0.21-0.29-0.34-0.52-0.41c-0.24-0.07-0.46-0.05-0.66,0.07c-0.2,0.12-0.32,0.29-0.36,0.52
	l-1.5,5.7C16.51,23.47,16.5,23.55,16.5,23.6z M18.03,9.08c0.67-0.67,1.49-1,2.48-1c0.98,0,1.81,0.34,2.49,1.02
	c0.69,0.68,1.03,1.51,1.03,2.48c0,0.63-0.17,1.24-0.52,1.85C22.56,12.48,21.4,12,20.02,12h-0.31C19.43,10.83,18.87,9.86,18.03,9.08z
	"/>
</svg>
